X:1
T: Archie Menzies
C:John Lowe
R:Reel
I:speed 232
Q:232
K:F
M:4/4
L:1/8
|:C|F2CF AF EF|Ac de fc AF|G2DG BG DG|Bd ef ge cG|
F2CF AF EF|Ac de fc AF|Bd GB Ac FA|GB CE F2Fe|
f2cf af ef|cf ag fe dc|g2dg bg ^fg|dg ba gf ed|
cf ef af ef|cf ag fe dc|Bd GB Ac FA|GB CE F2F:|
